img/SAUNA/icon/time.svg

<svg width="22" height="22" viewBox="0 0 22 22" fill="none" xmlns="http://www.w3.org/2000/svg">
<path d="M2 11.0176C2 9.38582 2.40403 7.87703 3.2121 6.49122C4.02017 5.1054 5.11516 4.01041 6.49707 3.20625C7.87898 2.40208 9.38191 2 11.0059 2C12.2238 2 13.3871 2.23813 14.4958 2.71438C15.6044 3.19063 16.5608 3.83084 17.365 4.635C18.1692 5.43917 18.8094 6.39753 19.2856 7.51008C19.7619 8.62264 20 9.7918 20 11.0176C20 12.2355 19.7619 13.4008 19.2856 14.5133C18.8094 15.6259 18.1692 16.5823 17.365 17.3826C16.5608 18.1828 15.6044 18.8191 14.4958 19.2915C13.3871 19.7638 12.2238 20 11.0059 20C9.78009 20 8.61093 19.7619 7.49837 19.2856C6.38582 18.8094 5.42746 18.1692 4.62329 17.365C3.81913 16.5608 3.18087 15.6064 2.70852 14.5016C2.23617 13.3969 2 12.2355 2 11.0176ZM3.97918 11.0176C3.97918 12.9148 4.67014 14.5621 6.05205 15.9597C7.43396 17.3416 9.08523 18.0325 11.0059 18.0325C12.2707 18.0325 13.4418 17.7183 14.5192 17.0898C15.5966 16.4613 16.4515 15.6083 17.0839 14.5309C17.7163 13.4535 18.0325 12.2824 18.0325 11.0176C18.0325 9.75276 17.7163 8.5797 17.0839 7.49837C16.4515 6.41705 15.5966 5.56213 14.5192 4.93364C13.4418 4.30514 12.2707 3.99089 11.0059 3.99089C9.74105 3.99089 8.56994 4.30514 7.49252 4.93364C6.41509 5.56213 5.56018 6.41705 4.92778 7.49837C4.29538 8.5797 3.97918 9.75276 3.97918 11.0176ZM10.3149 11.0176V5.689C10.3149 5.50163 10.3793 5.34353 10.5081 5.2147C10.637 5.08588 10.7951 5.02147 10.9824 5.02147C11.1698 5.02147 11.3279 5.08588 11.4567 5.2147C11.5856 5.34353 11.65 5.50163 11.65 5.689V10.6077L14.5192 12.2824C14.6753 12.3761 14.7768 12.5107 14.8237 12.6864C14.8705 12.8621 14.8471 13.028 14.7534 13.1841C14.6285 13.4105 14.4372 13.5237 14.1796 13.5237C14.0468 13.5237 13.9336 13.4925 13.8399 13.4301L10.7833 11.65C10.6506 11.6109 10.5394 11.5329 10.4496 11.4157C10.3598 11.2986 10.3149 11.1659 10.3149 11.0176Z" fill="#2F2F2F"/>
</svg>

<svg width="22" height="22" viewBox="0 0 22 22" fill="none" xmlns="http://www.w3.org/2000/svg"><path d="M2 11.018a8.83 8.83 0 011.212-4.527 8.958 8.958 0 013.285-3.285A8.808 8.808 0 0111.006 2c1.218 0 2.381.238 3.49.714a9.075 9.075 0 012.869 1.921 9.055 9.055 0 011.92 2.875A8.82 8.82 0 0120 11.018a8.791 8.791 0 01-.714 3.495 8.985 8.985 0 01-1.921 2.87 9.047 9.047 0 01-2.87 1.909 8.814 8.814 0 01-3.49.708 8.82 8.82 0 01-3.507-.714 9.055 9.055 0 01-2.875-1.921 9.011 9.011 0 01-1.914-2.863A8.77 8.77 0 012 11.018zm1.98 0c0 1.897.69 3.544 2.072 4.942 1.382 1.382 3.033 2.072 4.954 2.072a6.85 6.85 0 003.513-.942 7.04 7.04 0 002.565-2.56 6.818 6.818 0 00.948-3.512 6.85 6.85 0 00-.948-3.52 7.026 7.026 0 00-2.565-2.564 6.85 6.85 0 00-3.513-.943 6.85 6.85 0 00-3.513.943 7.026 7.026 0 00-2.565 2.564 6.85 6.85 0 00-.949 3.52zm6.335 0V5.689c0-.187.064-.345.193-.474a.645.645 0 01.474-.194c.188 0 .346.065.475.194a.645.645 0 01.193.474v4.919l2.87 1.674a.65.65 0 01.304.404.62.62 0 01-.07.498.614.614 0 01-.574.34.599.599 0 01-.34-.094l-3.057-1.78a.642.642 0 01-.333-.234.637.637 0 01-.135-.398z" fill="#2F2F2F"/></svg>
